X:31
T:Captain Macintosh
M:2/4
L:1/8
K:D
%%MIDI channel 1
%%MIDI program 72
%%MIDI transpose 8
%%MIDI grace 1/8
%%MIDI ratio 3 1
A|d>e d>e|cA AA|d>e d>f|a3 f|bg    ge|af    fd|ef ge|dc BA|
  d>e d>e|cA AA|d>e d>f|a3 f|bg    ge|af    fd|ge ec|d2-d::
d|a>b a>b|ge ef|g>a g>a|f3 d|Ad/e/ fd|Be/f/ ge|bg ed|dc BA|
  d>e d>e|cA AA|d>e df |a3 f|bg    ge|af    fd|ge ec|d2-d:|
P:2nd Fife Harmony
F|F>G F>G|EF EF|F>G  Fd|fd fd|ge    ec|fd    AF|GA BA|BA GF|
  F>G F>G|EF EF|F>G  Fd|fd fd|ge    ec|fd    AF|BG GE|F2-F::
d|f>g f>g|ec cd|e>f e>f|dA dF|GF/G/ AF|GG/A/ BG|ge cd|BA GF|
  F>G F>G|EF EF|F>G  Fd|fd fd|ge    ec|fd    AF|Bc AG|F2-F:|
